X: 2
T: Cronin's
M: 4/4
L: 1/8
R: hornpipe
K: G Major
|: B>A |\
G>AB>d d>Bd>e | g>ag>e d>eg>a | b>ag>e d>BG>A | B>AA>^G A>cB>A |
G>A (3Bcd d>Bd>e | g>ag>e d>eg>a | b>ag>e d>BA>c | B2 G2 G2 :|
|: (3efg |\
a>fd>^c d2 g>a | b>ge>^d e2 g>a | (3bag (3agf g>ed>B | (3cBA (3BAG (3ABc B>A |
G>AB>c d2 (3Bcd | g>ag>e d>eg>a | b>ag>e d>BA>c | B>GG>F G2 :|
